src/actions/24/mail-attachment.svg

<svg xmlns="http://www.w3.org/2000/svg" viewBox="0 0 24 24">
  <defs id="defs3051">
    <style type="text/css" id="current-color-scheme">
      .ColorScheme-Text {
        color:#2e3440;
      }
      </style>
  </defs>
 <path style="fill:currentColor;fill-opacity:1;stroke:none" 
     d="M 13.902344 4 L 4.734375 13.167969 C 3.167415 14.734929 3.167415 17.257279 4.734375 18.824219 C 6.301315 20.391169 8.823675 20.391169 10.390625 18.824219 L 18.851562 10.363281 L 19.558594 9.65625 C 20.733804 8.48104 20.733794 6.5892625 19.558594 5.4140625 C 18.383384 4.2388525 16.491616 4.2388525 15.316406 5.4140625 L 14.609375 6.1210938 L 6.1484375 14.582031 C 5.3649575 15.365511 5.3649675 16.626686 6.1484375 17.410156 C 6.9319175 18.193636 8.1930825 18.193646 8.9765625 17.410156 L 17.4375 8.9492188 L 16.730469 8.2421875 L 8.9765625 15.996094 L 8.2695312 16.703125 C 7.8777912 17.094865 7.2471888 17.094865 6.8554688 16.703125 C 6.4637287 16.311405 6.4637187 15.680813 6.8554688 15.289062 L 15.316406 6.828125 L 16.023438 6.1210938 C 16.806916 5.3376037 18.068093 5.3376036 18.851562 6.1210938 C 19.635043 6.9045537 19.635042 8.1657386 18.851562 8.9492188 L 9.6835938 18.117188 C 8.5083838 19.292396 6.6166162 19.292396 5.4414062 18.117188 C 4.2661862 16.941976 4.2661862 15.05021 5.4414062 13.875 L 14.609375 4.7070312 L 13.902344 4 z "
     class="ColorScheme-Text"
     />
</svg>

<svg viewBox="0 0 24 24" xmlns="http://www.w3.org/2000/svg">
 <defs>
  <style type="text/css">.ColorScheme-Text {
        color:#2e3440;
      }</style>
 </defs>
 <path class="ColorScheme-Text" d="m13.902 4-9.168 9.168c-1.567 1.567-1.567 4.0893 0 5.6562 1.5669 1.567 4.0893 1.567 5.6562 0l9.168-9.168c1.1752-1.1752 1.1752-3.067 0-4.2422-1.1752-1.1752-3.067-1.1752-4.2422 0l-9.168 9.168c-0.78348 0.78348-0.78347 2.0447 0 2.8281 0.78348 0.78348 2.0446 0.78349 2.8281 0l8.4609-8.4609-0.70703-0.70703-8.4609 8.4609c-0.39174 0.39174-1.0223 0.39174-1.4141 0-0.39174-0.39172-0.39175-1.0223 0-1.4141l9.168-9.168c0.78348-0.78349 2.0447-0.78349 2.8281 0 0.78348 0.78346 0.78348 2.0446 0 2.8281l-9.168 9.168c-1.1752 1.1752-3.067 1.1752-4.2422 0-1.1752-1.1752-1.1752-3.067 0-4.2422l9.168-9.168-0.70703-0.70703z" fill="currentColor"/>
</svg>
